source/images/logo-cat-energy.svg

<svg viewBox="0 0 128 24" fill="none" xmlns="http://www.w3.org/2000/svg"><path d="M1.62 21.95a9.33 9.33 0 0 1-1.6-5.72v-8.47a9.54 9.54 0 0 1 1.5-5.82c1.1-1.33 2.8-1.94 5.31-1.94 2.5 0 4.1.61 5.1 1.73a7.43 7.43 0 0 1 1.51 5.01v2.04h-4.91v-2.35c.04-.7-.06-1.39-.3-2.04a1.42 1.42 0 0 0-1.4-.82c-.71 0-1.21.2-1.41.71a7.15 7.15 0 0 0-.3 2.25v10.93c-.05.74.09 1.48.4 2.14.2.51.71.72 1.41.72s1.1-.21 1.3-.72c.23-.69.33-1.41.3-2.14v-2.45h4.91v2.04a7.9 7.9 0 0 1-1.51 5.11c-1 1.22-2.7 1.84-5.1 1.84-2.41-.11-4.21-.72-5.21-2.05Zm17.72-21.65h5.71l4.21 23.29h-4.61l-.8-4.91h-3.3l-.81 4.91h-4.7l4.3-23.29Zm4.11 15.32-1.2-9.09-1.2 9.09h2.4Zm9.31-11.44h-3.4v-3.88h11.91v3.78h-3.4v19.51h-5.11v-19.41Zm17.63-3.88h8.81v2.45h-5.71v7.66h4.61v2.35h-4.61v8.58h5.71v2.35h-8.91v-23.39h.1Zm11.41 0h2.21l6.5 15.42v-15.42h2.61v23.29h-2l-6.61-15.94v15.94h-2.71v-23.29Zm14.32 0h8.81v2.45h-5.7v7.66h4.6v2.35h-4.6v8.58h5.7v2.35h-8.81v-23.39Zm11.42 0h4.6a7.89 7.89 0 0 1 5.11 1.43c1.1.92 1.6 2.55 1.6 4.7 0 2.96-.9 4.8-2.8 5.41l3.2 11.64h-3.1l-3-10.92h-2.51v10.92h-3.2v-23.18h.1Zm4.4 10.01c1.04.09 2.07-.2 2.91-.82.6-.51.9-1.53.9-3.06a6.61 6.61 0 0 0-.3-2.25 2.56 2.56 0 0 0-1.1-1.22 4.54 4.54 0 0 0-2.21-.41h-1.4v7.66h1.2v.1Zm10.92 11.54a10.48 10.48 0 0 1-1.4-5.92v-7.76c-.03-1.48.14-2.96.5-4.4.33-1.07 1-2 1.9-2.65 1.12-.68 2.41-1 3.71-.92 2.1 0 3.6.51 4.5 1.63a7.93 7.93 0 0 1 1.41 5.11v.82h-3.01v-.72c.01-.85-.06-1.71-.2-2.55a2.04 2.04 0 0 0-.8-1.33 2.99 2.99 0 0 0-1.9-.51 2.98 2.98 0 0 0-2.01.61 2.41 2.41 0 0 0-.8 1.64c-.13.91-.2 1.83-.2 2.75v8.69a9.51 9.51 0 0 0 .6 3.88c.4.81 1.21 1.12 2.41 1.12a2.37 2.37 0 0 0 2.4-1.23c.53-1.29.77-2.68.7-4.08v-1.63h-2.9v-2.35h5.81v11.54h-2.01l-.3-2.66a4.14 4.14 0 0 1-1.55 2.2c-.74.54-1.64.81-2.55.76a5 5 0 0 1-4.31-2.04Zm17.12-6.43-4.9-15.02h3l3.51 11.24 3.4-11.24h3.01l-4.91 15.02v8.17h-3.01v-8.17h-.1Z" fill="#111"/></svg>

<svg width="128.000000" height="24.000000" viewBox="0 0 128 24" fill="none" xmlns="http://www.w3.org/2000/svg" xmlns:xlink="http://www.w3.org/1999/xlink">
	<desc>
			Created with Pixso.
	</desc>
	<defs/>
	<path d="M1.62 21.95C0.48 20.28 -0.08 18.27 0.02 16.23L0.02 7.76C-0.12 5.7 0.41 3.66 1.52 1.94C2.62 0.61 4.32 0 6.83 0C9.33 0 10.93 0.61 11.93 1.73C13.02 3.15 13.56 4.94 13.44 6.74L13.44 8.78L8.53 8.78L8.53 6.43C8.57 5.73 8.47 5.04 8.23 4.39C8.1 4.12 7.9 3.9 7.65 3.76C7.4 3.61 7.11 3.55 6.83 3.57C6.12 3.57 5.62 3.77 5.42 4.28C5.2 5.01 5.1 5.77 5.12 6.53L5.12 17.46C5.07 18.2 5.21 18.94 5.52 19.6C5.72 20.11 6.23 20.32 6.93 20.32C7.63 20.32 8.03 20.11 8.23 19.6C8.46 18.91 8.56 18.19 8.53 17.46L8.53 15.01L13.44 15.01L13.44 17.05C13.54 18.88 13.01 20.69 11.93 22.16C10.93 23.38 9.23 24 6.83 24C4.42 23.89 2.62 23.28 1.62 21.95Z" fill="#111111" fill-opacity="1.000000" fill-rule="nonzero"/>
	<path d="M19.34 0.3L25.05 0.3L29.26 23.59L24.65 23.59L23.85 18.68L20.55 18.68L19.74 23.59L15.04 23.59L19.34 0.3ZM23.45 15.62L22.25 6.53L21.05 15.62L23.45 15.62Z" fill="#111111" fill-opacity="1.000000" fill-rule="nonzero"/>
	<path d="M32.76 4.18L29.36 4.18L29.36 0.3L41.27 0.3L41.27 4.08L37.87 4.08L37.87 23.59L32.76 23.59L32.76 4.18Z" fill="#111111" fill-opacity="1.000000" fill-rule="nonzero"/>
	<path d="M50.39 0.3L59.2 0.3L59.2 2.75L53.49 2.75L53.49 10.41L58.1 10.41L58.1 12.76L53.49 12.76L53.49 21.34L59.2 21.34L59.2 23.69L50.29 23.69L50.29 0.3L50.39 0.3Z" fill="#111111" fill-opacity="1.000000" fill-rule="nonzero"/>
	<path d="M61.8 0.3L64.01 0.3L70.51 15.72L70.51 0.3L73.12 0.3L73.12 23.59L71.12 23.59L64.51 7.65L64.51 23.59L61.8 23.59L61.8 0.3Z" fill="#111111" fill-opacity="1.000000" fill-rule="nonzero"/>
	<path d="M76.12 0.3L84.93 0.3L84.93 2.75L79.23 2.75L79.23 10.41L83.83 10.41L83.83 12.76L79.23 12.76L79.23 21.34L84.93 21.34L84.93 23.69L76.12 23.69L76.12 0.3Z" fill="#111111" fill-opacity="1.000000" fill-rule="nonzero"/>
	<path d="M87.54 0.3L92.14 0.3C93.96 0.17 95.76 0.68 97.25 1.73C98.35 2.65 98.85 4.28 98.85 6.43C98.85 9.39 97.95 11.23 96.05 11.84L99.25 23.48L96.15 23.48L93.15 12.56L90.64 12.56L90.64 23.48L87.44 23.48L87.44 0.3L87.54 0.3ZM91.94 10.31C92.98 10.4 94.01 10.11 94.85 9.49C95.45 8.98 95.75 7.96 95.75 6.43C95.78 5.67 95.68 4.91 95.45 4.18C95.22 3.66 94.84 3.23 94.35 2.96C93.66 2.64 92.9 2.5 92.14 2.55L90.74 2.55L90.74 10.21L91.94 10.21L91.94 10.31Z" fill="#111111" fill-opacity="1.000000" fill-rule="nonzero"/>
	<path d="M102.86 21.85C101.82 20.06 101.33 18 101.46 15.93L101.46 8.17C101.43 6.69 101.6 5.21 101.96 3.77C102.29 2.7 102.96 1.77 103.86 1.12C104.98 0.44 106.27 0.12 107.57 0.2C109.67 0.2 111.17 0.71 112.07 1.83C113.11 3.32 113.61 5.12 113.48 6.94L113.48 7.76L110.47 7.76L110.47 7.04C110.48 6.19 110.41 5.33 110.27 4.49C110.19 3.96 109.9 3.48 109.47 3.16C108.91 2.78 108.24 2.6 107.57 2.65C106.85 2.6 106.14 2.82 105.56 3.26C105.33 3.47 105.14 3.71 105 4C104.86 4.28 104.78 4.58 104.76 4.9C104.63 5.81 104.56 6.73 104.56 7.65L104.56 16.34C104.49 17.66 104.69 18.98 105.16 20.22C105.56 21.03 106.37 21.34 107.57 21.34C108.04 21.4 108.52 21.32 108.95 21.1C109.38 20.88 109.73 20.54 109.97 20.11C110.5 18.82 110.74 17.43 110.67 16.03L110.67 14.4L107.77 14.4L107.77 12.05L113.58 12.05L113.58 23.59L111.57 23.59L111.27 20.93C111.01 21.82 110.46 22.6 109.72 23.13C108.98 23.67 108.08 23.94 107.17 23.89C106.34 23.94 105.51 23.78 104.76 23.43C104.01 23.07 103.36 22.53 102.86 21.85Z" fill="#111111" fill-opacity="1.000000" fill-rule="nonzero"/>
	<path d="M119.98 15.42L115.08 0.4L118.08 0.4L121.59 11.64L124.99 0.4L128 0.4L123.09 15.42L123.09 23.59L120.08 23.59L120.08 15.42L119.98 15.42Z" fill="#111111" fill-opacity="1.000000" fill-rule="nonzero"/>
</svg>
